X: 507
T: Muirland Willie
P: Longways for as many as will
%R: jig
B: "Caledonian Country Dances" printed by John Walsh for John Johnson, London
S: 1: CCDTB http://imslp.org/wiki/Caledonian_Country_Dances_with_a_Thorough_Bass_(Various) p.95
Z: 2013 John Chambers <jc:trillian.mit.edu>
M: 6/8
L: 1/8
K: Gm
% - - - - - - - - - - - - - - - - - - - - - - - - -
V: 1
G |\
G2A B2c | d2e f2d | B2B f2d | (cA)c F2F |\
G2A B2c | ded b2a | gfe d=e^f | g3- g2 :|
|: g |\
g2a b2g | f2d f2d | BcB g2d | cAc F2G/F/ |\
G>AG B2c | e>ed b2a | gfe d=e^f | g3- g2 :|
% - - - - - - - - - - - - - - - - - - - - - - - - -
V: 2 clef=bass middle=d
z |\
b2a g3 | f2e d2B | d3 B3 | f3 F3 |\
e3 d2c | B2A G2d | edc d2D | G2d g2 :|
|: z |\
b2a g2e | d3 g3 | d3 e2z | d2z F2z |\
e3 d2c | B2A G2d | edc d2D | G2d g2 :|
% - - - - - - - - - - - - - - - - - - - - - - - - -
%%begintext align
%% The 1st Man goes round his own Wo. the 2d Wo. follows him & fall into their own Places.
%% 1st Wo & 2d Man do as much :|
%% 1st Man & 2d Wo. cross over & turn S. then take all Hands go a quarter round & turn S.
%% then the other Cu. cross over & turn S. then take all Hands & go round till
%% you come to your own Places. then cast off to the 2d Place. do this to the last :|
%% 1st Cu lead up. 2d Cu. lead down back again: that again.
%% the two Men go between their own We. & go round them into their own Places.
%% then take all Hands go half round & turn all S. the We. do as much round the Men
%% then take hands & go half round then the 1st Cu. cast off, do this to the last :|
%%endtext
%%sep 1 8 500

%%sep 1 1 500
%%sep 1 1 500
